Sources/FrostedUI/Resources/Icons.xcassets/copy20.imageset/copy-20.svg

<svg width="20" height="20" viewBox="0 0 20 20" fill="none" xmlns="http://www.w3.org/2000/svg" data-fui-icon="true">
  <path
    d="M5.25 6.5C5.66421 6.5 6 6.83579 6 7.25C6 7.66421 5.66421 8 5.25 8H3.36035C2.88539 8 2.5 8.38539 2.5 8.86035V16.6396C2.5 17.1146 2.88539 17.5 3.36035 17.5H10.1396C10.6146 17.5 11 17.1146 11 16.6396V15.75C11 15.3358 11.3358 15 11.75 15C12.1642 15 12.5 15.3358 12.5 15.75V16.6396C12.5 17.943 11.443 19 10.1396 19H3.36035C2.05696 19 1 17.943 1 16.6396V8.86035C1 7.55696 2.05696 6.5 3.36035 6.5H5.25ZM16.6396 1C17.943 1 19 2.05696 19 3.36035V11.1396C19 12.443 17.943 13.5 16.6396 13.5H9.86035C8.55696 13.5 7.5 12.443 7.5 11.1396V3.36035C7.5 2.05696 8.55696 1 9.86035 1H16.6396ZM9.86035 2.5C9.38539 2.5 9 2.88539 9 3.36035V11.1396C9 11.6146 9.38539 12 9.86035 12H16.6396C17.1146 12 17.5 11.6146 17.5 11.1396V3.36035C17.5 2.88539 17.1146 2.5 16.6396 2.5H9.86035Z"
    fill="currentColor"
  />
</svg>

<svg xmlns="http://www.w3.org/2000/svg" width="20" height="20" fill="none" data-fui-icon="true" viewBox="0 0 20 20"><path fill="currentColor" d="M5.25 6.5a.75.75 0 0 1 0 1.5H3.36a.86.86 0 0 0-.86.86v7.78c0 .475.385.86.86.86h6.78a.86.86 0 0 0 .86-.86v-.89a.75.75 0 0 1 1.5 0v.89A2.36 2.36 0 0 1 10.14 19H3.36A2.36 2.36 0 0 1 1 16.64V8.86A2.36 2.36 0 0 1 3.36 6.5zM16.64 1A2.36 2.36 0 0 1 19 3.36v7.78a2.36 2.36 0 0 1-2.36 2.36H9.86a2.36 2.36 0 0 1-2.36-2.36V3.36A2.36 2.36 0 0 1 9.86 1zM9.86 2.5a.86.86 0 0 0-.86.86v7.78c0 .475.385.86.86.86h6.78a.86.86 0 0 0 .86-.86V3.36a.86.86 0 0 0-.86-.86z"/></svg>
